!!!!SEGMENT: T747_Mes-w20p26m11-18.krn
!!!COM: Messiaen, Olivier (Eugène Prosper Charles)
!!!OTL: VI: Par Lui tout a été fait (Through Him Everything Was Made)
!!!AGN: Instrumental
!!!AGN-sub: Keyboard
!!!CNT: French
!!!ODT: 1944
!!!OPR: Vingt Regards sur l'Enfant-Jésus (Twenty Gazes on the Christ Child) for Piano
!!!filename: T747_Mes-w20p26m11-18.krn
**kern	**dynam	**kern	**dynam
*part1	*	*part1	*
*staff2	*	*staff1	*
*ICklav	*	*ICklav	*
*Ipiano	*	*Ipiano	*
*I"Piano	*	*I"Piano	*
*I'pf	*	*I'pf	*
*clefF4	*	*clefG2	*
*k[]	*	*k[]	*
*C:	*	*C:	*
!!LO:TX:tempo:a:t=[Modéré, presque vif]\n[[eighth]=160]
*M2/4	*	*M2/4	*
=11	=11	=11	=11
*^	*^	*^	*^
*grp:A	*grp:A	*	*	*grp:A	*grp:B	*	*
!!LO:TX:t=[[eighth]=160]
!!LO:TX:a:t=(Strette du sujet, canon de rhythmes non rétrogradables)
!	!	!	!	!	!	!LO:DY:a:t=%s marcato	!LO:DY:b:t=%s legato
8rc	4r	.	.	8.dd#XL	16ccnLL	f	p
.	.	.	.	.	16f#X	.	.
!	!	!	!LO:DY:a	!	!	!	!
[8dn	.	.	f	.	16e	.	.
.	.	.	.	[16dd#Jk	16fnJJ	.	.
!	!	!	!LO:DY:t=marcato %s	!	!	!	!
16dKL]	8.C#XL	.	f	4dd#]	16bLL	.	.
[8.dJ	.	.	.	.	16e	.	.
.	.	.	.	.	16b-X	.	.
.	[16C#Jk	.	.	.	16ccnJJ	.	.
=12	=12	=12	=12	=12	=12	=12	=12
8d]	4C#X]	.	.	2dd#X	16bnLL	.	.
.	.	.	.	.	16fn	.	.
[4.d	.	.	.	.	16ccn	.	.
.	.	.	.	.	16f#XJJ	.	.
.	[4C#	.	.	.	16eLL	.	.
.	.	.	.	.	16fn	.	.
.	.	.	.	.	16b	.	.
.	.	.	.	.	16eJJ	.	.
=13	=13	=13	=13	=13	=13	=13	=13
8dL]	4C#X]	.	.	[4een	16b-XLL	.	.
.	.	.	.	.	16ccn	.	.
[8e-XJ	.	.	.	.	16bn	.	.
.	.	.	.	.	16fnJJ	.	.
8.e-L]	[4D	.	.	16eeKL]	16cc#XLL	.	.
.	.	.	.	8.ffJ	16g	.	.
.	.	.	.	.	16fn	.	.
[16enJk	.	.	.	.	16f#XJJ	.	.
=14	=14	=14	=14	=14	=14	=14	=14
8e]	16DKL]	.	.	4ff#X	16ccnLL	.	.
.	8.E-XJ	.	.	.	16fn	.	.
4fn	.	.	.	.	16b	.	.
.	.	.	.	.	16cc#XJJ	.	.
.	4En	.	.	8.cccnL	16ccnLL	.	.
.	.	.	.	.	16f#X	.	.
[8b	.	.	.	.	16dd#X	.	.
.	.	.	.	[16bbJk	16aJJ	.	.
!!linebreak:original
=15	=15	=15	=15	=15	=15	=15	=15
16bKL]	8.B-XL	.	.	4bb_	16gLL	.	.
[8.a#XJ	.	.	.	.	16g#X	.	.
.	.	.	.	.	16ddn	.	.
.	[16AnJk	.	.	.	16gnJJ	.	.
4a#]	4A_	.	.	8bbL]	16cc#XLL	.	.
.	.	.	.	.	16dd#X	.	.
.	.	.	.	[8ff#XJ	16ddn	.	.
.	.	.	.	.	16g#XJJ	.	.
=16	=16	=16	=16	=16	=16	=16	=16
8.fnL	8AL]	.	.	16ff#XKL]	16eeLL	.	.
.	.	.	.	[8.ffnJ	16a#X	.	.
.	[8EJ	.	.	.	16g#X	.	.
[16eJk	.	.	.	.	16anJJ	.	.
8.eL]	16EKL]	.	.	16ffKL]	16dd#XLL	.	.
.	[8.E-XJ	.	.	8ee	16g#X	.	.
.	.	.	.	.	16ddn	.	.
[16e-XJk	.	.	.	[16bbJk	16eeJJ	.	.
=17	=17	=17	=17	=17	=17	=17	=17
16e-KL]	16E-KL]	.	.	16bbKL]	16dd#XLL	.	.
8b-X	8D	.	.	8.aa#XJ	16anX	.	.
.	.	.	.	.	16ddn	.	.
[16aJk	[16AJk	.	.	.	16g#XJJ	.	.
8aL]	16AKL]	.	.	[4aan	16f#XLL	.	.
.	8.A-XJ	.	.	.	16gn	.	.
[8a-XJ	.	.	.	.	16cc#X	.	.
.	.	.	.	.	16f#XJJ	.	.
=18	=18	=18	=18	=18	=18	=18	=18
8.a-L]	[4G	.	.	16aaKL]	16ccnLL	.	.
.	.	.	.	8.eeJ	16dd	.	.
.	.	.	.	.	16cc#X	.	.
[16e-XJk	.	.	.	.	16gJJ	.	.
8e-L]	16GKL]	.	.	8dd#XL	16ccnLL	.	.
.	8.DnJ	.	.	.	16f#X	.	.
8dnJ	.	.	.	8dd#XJ	16e	.	.
.	.	.	.	.	16fnJJ	.	.
*	*clefG2	*	*	*	*	*	*
*v	*v	*	*	*v	*v	*	*
*	*v	*v	*	*v	*v
=	=	=	=
*-	*-	*-	*-
!!!system-decoration: [({(s1,s2)})]
!!!EED:Jason Lee
!!!EEV:2021/10/08
!!!EED2: Daniel Wright
!!!Suter_Work_ID: Mes-20
!!!Suter_Example_Number: 747
!!!Suter_Example_ID: Mes-20/26/11-18
!!!Premiere_Location: Paris,France
!!!Other_Tsigs: none
!!!Full_Unit_Duration: 9:00
!!!First_Publication_Year: 1947
!!!First_Public_Performance_Year: 1945
!!!Example_Total_Measures: 8
!!!Example_Timestamp_Duration: 10
!!!Example_Start_Tsig_Type: unmetered
!!!Example_Start_Tsig_Mean_Beat_Rate: 80
!!!Example_Start_Tsig_Beat_Rate: 80
!!!Example_Start_Tsig_Beat: {quarter}
!!!Example_Start_Tsig: {2/4}
!!!Example_Start_Timestamp: 0:24
!!!Example_Start_Tempo_Expression: [Modéré, presque vif]
!!!Example_Start_Notated_Beat_Rate: [160]
!!!Example_Start_Notated_Beat: [eighth]
!!!Example_Start_Measure: 11
!!!Example_Metadata_Validated: Y
!!!Example_End_Timestamp: 0:34
!!!Example_End_Measure: 18
!!!Example_Dataset: T
!!!Editorial_Comments: Example Start Notated Beat and Example Start Notated Beat Rate [eighth=160] based on most recent notated beat rate (SWFU, m. 1). Example Start Tempo Expression [Modéré, presque vif] based on most recent notated tempo expression (SWFU, m. 1). Interpretation Note: The opening measure contains 21 sixteenth notes grouped in threes, followed by four measures in {3/4} time; as the majority of the sixteenth notes in the piece are in groups of four, the interpretive {3/4} was used as Full Unit Start Time Signature. Additionally, there are a myriad of measures that are only a single sixteenth, single eighth, or three thirty-second notes long; all validated measures in this example were counted by disregarding all \"measures\" that only contain a sixteenth beat (which follows how Suter counted the measures). Editorial Note: Full Unit Start Time Signature {3/4} based on a calculation of the number of quarter beats in the second unmetered measure, which momentarily establishes a regular grouping of beats. Full Unit Start Tsig Type {triple} is used as there are three groups of 4-sixteenth note subdivisions in majority of the initial measures, despite occasional metric shifts that are not expressed through changing meters.
!!!Death_Place: Paris,France
!!!Death_Date: 27-Apr-1992
!!!Changing_Tsig: no
!!!Birth_Place: Avignon,France
!!!Birth_Date: 10-Dec-1908
!!!Audio_Example_Quarter_Note_Tempo:
!!!Audio_Example_Duration:
!!!EEV2: 2022/03/11
